X: 26
T: Rondo for the pips
C: Mackenzie?
R: hornpipe, reel
M: 2/4
L: 1/16
N: Another tune by the mysterious McKenzie. This seems intended as a parlour piece for smallpipes,
N: a little more ambitious than a dance tune but strongly influenced by dance tune forms.
Z: 2010 John Chambers <jc:trillian.mit.edu>
B: Anonymous manuscript tune book (1800-1840) p.78
F: http://www.asaplive.com/archive/browse_by_collection.asp
N: The asaplive.com web site is complex, and links to its files don't usually work.
K: G
D2 |\
G2G2 A>GA>B | G>gf>e d3B | c2c2 B>AB>c | A>GA>B A>DE>F |
G2G2 A>GA>B | G>gf>e d3c | B2B2 A>GA>B | G2[B2G2]G2 :|
|: B2 |\
A2A2 d>cA>c | B>dg>f g>dB>G | A2AB d>cA>c | B>dg>f g2d2 |
e2ef agfe | dBba gfed | dBgf edcB | B4 A>DE>F |
G2B2 A>GA>B |G>gf>e d3B | c>ea>c B>dg>B | A>GA>B A>DE>F |
G2B2 A>GA>B | G>gf>e d2gd | B2B2 A>GA>B | G2B2G2 |]


%%sep 5 1 500

